icons/behat-dark.svg

<svg width="256" height="256" viewBox="0 0 256 256" fill="none" xmlns="http://www.w3.org/2000/svg">
<path d="M196 0H60C26.8629 0 0 26.8629 0 60V196C0 229.137 26.8629 256 60 256H196C229.137 256 256 229.137 256 196V60C256 26.8629 229.137 0 196 0Z" fill="#282828"/>
<path d="M166.982 128.568C196.227 88.2209 172.697 46.7687 139.364 33.2297C103.005 18.4621 55.8443 43.5143 54 90.4546V226H133.187C171.385 214.406 169.229 182.345 158.004 165.215C128.474 128.604 74.287 161.655 91.4611 203.274L102.342 197.174L91.0611 223.363L63.1342 219.086L72.9697 213.606C59.7963 188.554 67.1734 153.349 95.8452 136.423C56.2834 119.814 53.8136 50.2913 113.017 42.2836C145.511 37.8885 186.6 80.684 155.51 121.998L161.634 126.632L139.891 126.67L134.203 105.704L141.471 111.023C165.842 75.0274 116.705 41.5365 91.9394 72.3903C83.2663 83.1954 80.2151 105.486 100.766 119.067C107.274 123.229 125.284 125.863 139.882 129.527C147.624 131.47 157.633 137.127 161.231 140.031C189.949 164.292 195.246 196.559 172.986 226H190.213C212.608 194.091 201.278 147.679 166.982 128.568Z" fill="#F4F2ED"/>
</svg>

<svg xmlns="http://www.w3.org/2000/svg" width="256" height="256" fill="none"><path fill="#282828" d="M196 0H60C26.863 0 0 26.863 0 60v136c0 33.137 26.863 60 60 60h136c33.137 0 60-26.863 60-60V60c0-33.137-26.863-60-60-60"/><path fill="#F4F2ED" d="M166.982 128.568c29.245-40.347 5.715-81.8-27.618-95.338C103.005 18.462 55.844 43.514 54 90.455V226h79.187c38.198-11.594 36.042-43.655 24.817-60.785-29.53-36.611-83.717-3.56-66.543 38.059l10.881-6.1-11.28 26.189-27.928-4.277 9.836-5.48c-13.174-25.052-5.797-60.257 22.875-77.183-39.562-16.609-42.031-86.132 17.172-94.14 32.494-4.395 73.583 38.401 42.493 79.715l6.124 4.634-21.743.038-5.688-20.966 7.268 5.319c24.371-35.996-24.766-69.486-49.532-38.633-8.673 10.805-11.724 33.096 8.827 46.677 6.508 4.162 24.518 6.796 39.116 10.46 7.742 1.943 17.751 7.6 21.349 10.504 28.718 24.261 34.015 56.528 11.755 85.969h17.227c22.395-31.909 11.065-78.321-23.231-97.432"/></svg>
